icons/prisma-filled.svg

<svg xmlns="http://www.w3.org/2000/svg" width="256" height="256" fill="none" viewBox="0 0 256 256"><rect width="256" height="256" fill="#677EEB" rx="60"/><path fill="#F7FAFC" fill-rule="evenodd" d="M52.6582 165.183C50.7411 162.159 50.7122 158.307 52.5835 155.254L123.044 40.3196C126.963 33.927 136.426 34.4859 139.565 41.2954L203.934 180.926C206.322 186.107 203.573 192.203 198.108 193.843L97.9779 223.882C93.9492 225.09 89.6084 223.471 87.3564 219.918L52.6582 165.183ZM131.173 73.9256C131.852 70.5445 136.485 70.0569 137.853 73.2226L182.254 175.963C183.09 177.898 182.05 180.129 180.03 180.731L110.848 201.383C108.305 202.142 105.869 199.92 106.392 197.318L131.173 73.9256Z" clip-rule="evenodd"/></svg>

<svg xmlns="http://www.w3.org/2000/svg" width="256" height="256" fill="none"><rect width="256" height="256" fill="#677EEB" rx="60"/><path fill="#F7FAFC" fill-rule="evenodd" d="M52.658 165.183a9.39 9.39 0 0 1-.075-9.929L123.045 40.32c3.919-6.393 13.382-5.834 16.521.975l64.369 139.631c2.388 5.181-.361 11.277-5.826 12.917l-100.13 30.039a9.384 9.384 0 0 1-10.622-3.964zm78.515-91.257c.679-3.382 5.312-3.87 6.68-.703l44.401 102.74a3.518 3.518 0 0 1-2.224 4.768l-69.182 20.652c-2.543.759-4.979-1.463-4.456-4.065z" clip-rule="evenodd"/></svg>
